Origami/32x32/apps/gps.svg

<svg width="32" height="32" version="1" xmlns="http://www.w3.org/2000/svg">
 <path d="m 13,3 0,2.390625 A 12,12 0 0 0 4.3945312,14 L 2,14 2,20 4.390625,20 A 12,12 0 0 0 13,28.605469 L 13,31 l 6,0 0,-2.390625 A 12,12 0 0 0 27.605469,20 L 30,20 30,14 27.609375,14 A 12,12 0 0 0 19,5.3945312 L 19,3 13,3 Z" style="opacity:.2"/>
 <path d="m13 2v2.390625a12 12 0 0 0 -8.6054688 8.609375h-2.3945312v6h2.390625a12 12 0 0 0 8.609375 8.605469v2.394531h6v-2.390625a12 12 0 0 0 8.605469 -8.609375h2.394531v-6h-2.390625a12 12 0 0 0 -8.609375 -8.6054688v-2.3945312h-6z" style="fill:#1e80ff"/>
 <rect transform="matrix(0,-1,-1,0,0,0)" x="-24" y="-23" width="14" height="14" rx="7" ry="7" style="opacity:.2"/>
 <rect transform="matrix(0,-1,-1,0,0,0)" x="-23" y="-23" width="14" height="14" rx="7" ry="7" style="fill:#ffffff"/>
 <path d="m13 2v1h6v-1h-6zm0 2.390625a12 12 0 0 0 -8.6054688 8.609375h-2.3945312v1h2.3945312a12 12 0 0 1 8.6054688 -8.609375v-1zm6 0.0039062v1a12 12 0 0 1 8.609375 8.6054688h2.390625v-1h-2.390625a12 12 0 0 0 -8.609375 -8.6054688z" style="fill:#ffffff;opacity:.2"/>
</svg>

<svg xmlns="http://www.w3.org/2000/svg" width="32" height="32" version="1">
 <path style="opacity:0.2" d="m 13,3 0,2.390625 A 12,12 0 0 0 4.3945312,14 L 2,14 2,20 4.390625,20 A 12,12 0 0 0 13,28.605469 L 13,31 l 6,0 0,-2.390625 A 12,12 0 0 0 27.605469,20 L 30,20 30,14 27.609375,14 A 12,12 0 0 0 19,5.3945312 L 19,3 13,3 Z"/>
 <path style="fill:#1e80ff" d="M 13 2 L 13 4.390625 A 12 12 0 0 0 4.3945312 13 L 2 13 L 2 19 L 4.390625 19 A 12 12 0 0 0 13 27.605469 L 13 30 L 19 30 L 19 27.609375 A 12 12 0 0 0 27.605469 19 L 30 19 L 30 13 L 27.609375 13 A 12 12 0 0 0 19 4.3945312 L 19 2 L 13 2 z"/>
 <rect style="opacity:0.2" width="14" height="14" x="-24" y="-23" rx="7" ry="7" transform="matrix(0,-1,-1,0,0,0)"/>
 <rect style="fill:#ffffff" width="14" height="14" x="-23" y="-23" rx="7" ry="7" transform="matrix(0,-1,-1,0,0,0)"/>
 <path style="opacity:0.2;fill:#ffffff" d="M 13 2 L 13 3 L 19 3 L 19 2 L 13 2 z M 13 4.390625 A 12 12 0 0 0 4.3945312 13 L 2 13 L 2 14 L 4.3945312 14 A 12 12 0 0 1 13 5.390625 L 13 4.390625 z M 19 4.3945312 L 19 5.3945312 A 12 12 0 0 1 27.609375 14 L 30 14 L 30 13 L 27.609375 13 A 12 12 0 0 0 19 4.3945312 z"/>
</svg>
